Hatter-kde-dark/actions/16/format-border-set-internal.svg

<?xml version="1.0" encoding="UTF-8"?>
<svg viewBox="0 0 16 16" xmlns="http://www.w3.org/2000/svg">
 <defs id="defs3051">
  <style id="current-color-scheme" type="text/css">.ColorScheme-Text {
        color:#dedede;
      }
      .ColorScheme-ViewBackground {
        color:#fcfcfc;
      }</style>
 </defs>
 <g transform="translate(-421.71 -531.79)" fill="currentColor">
  <path class="ColorScheme-ViewBackground" d="m2 1v1 5h1v-5h5v-1h-5-1zm7 0v1h5v5h1v-5-1h-1-5zm-7 7v5 1h1 5v-1h-5v-5h-1zm12 0v5h-5v1h5 1v-1-5h-1z"/>
  <path class="ColorScheme-Text" transform="translate(421.71 531.79)" d="m8 1v6h-6v1h6v6h1v-6h6v-1h-6v-6h-1z"/>
  <path class="ColorScheme-Text" d="m435.71 533.79v5h-5v-5h5zm-6 0v5h-5v-5h5zm6 6v5h-5v-5h5zm-6 0v5h-5v-5h5z" fill-opacity=".5"/>
 </g>
</svg>

<svg xmlns="http://www.w3.org/2000/svg" viewBox="0 0 16 16">
  <defs id="defs3051">
    <style type="text/css" id="current-color-scheme">
      .ColorScheme-Text {
        color:#dedede;
      }
      .ColorScheme-ViewBackground {
        color:#fcfcfc;
      }
      </style>
  </defs>
<g transform="translate(-421.71429,-531.79074)">
 <path style="fill:currentColor;fill-opacity:1;stroke:none" 
     d="M 2 1 L 2 2 L 2 7 L 3 7 L 3 2 L 8 2 L 8 1 L 3 1 L 2 1 z M 9 1 L 9 2 L 14 2 L 14 7 L 15 7 L 15 2 L 15 1 L 14 1 L 9 1 z M 2 8 L 2 13 L 2 14 L 3 14 L 8 14 L 8 13 L 3 13 L 3 8 L 2 8 z M 14 8 L 14 13 L 9 13 L 9 14 L 14 14 L 15 14 L 15 13 L 15 8 L 14 8 z "
     class="ColorScheme-ViewBackground"
     />
 <path style="fill:currentColor;fill-opacity:1;stroke:none" 
     d="M 8 1 L 8 7 L 2 7 L 2 8 L 8 8 L 8 14 L 9 14 L 9 8 L 15 8 L 15 7 L 9 7 L 9 1 L 8 1 z "
       transform="translate(421.71429,531.79074)"
     class="ColorScheme-Text"
     />
 <path style="fill:currentColor;fill-opacity:0.5;stroke:none" 
     d="m 435.71429,533.79074 0,5 -5,0 0,-5 5,0 z m -6,0 0,5 -5,0 0,-5 5,0 z m 6,6 0,5 -5,0 0,-5 5,0 z m -6,0 0,5 -5,0 0,-5 5,0 z"
     class="ColorScheme-Text"
     />
  </g>
</svg>
